X:472
T: Huanle shengchan
N: C2091
O: China, Shanxi Xiyang
S: I, 280]
N: Han
R: Xiaodiao]
M: 2/4
L: 1/16
K: Bb
c4f4 | fgfdc4 | c4f4 | fgfdc4
c3dc2b2 | g2c2a2g2 | f2g2f2c2 | f8
b3ag2b2 | b3ag2b2 | c2z2f2z2 | fgfdc4
c2d2c2b2 | g2c2a2g2 | f2g2f2c2 | f8

